vault/attachments/LUT for me.cube
TITLE "ColorMatch"
LUT_3D_SIZE 8
DOMAIN_MIN 0.000000 0.000000 0.000000
DOMAIN_MAX 0.903226 0.903226 0.903226
0.003812 0.000000 0.006740 
0.054589 0.010061 0.000000 
0.163264 0.048909 0.036801 
0.286201 0.083197 0.077451 
0.403037 0.106468 0.104372 
0.527165 0.124117 0.125227 
0.645680 0.126586 0.136756 
0.747599 0.105207 0.128937 
0.000000 0.050567 0.023019 
0.047668 0.070733 0.019115 
0.147835 0.097403 0.039693 
0.273041 0.120809 0.066513 
0.407806 0.141010 0.092922 
0.544427 0.163065 0.119692 
0.667760 0.173026 0.139874 
0.772166 0.155888 0.142946 
0.000000 0.148977 0.054147 
0.058881 0.178170 0.060957 
0.158641 0.199955 0.073384 
0.271168 0.211648 0.086690 
0.401065 0.221690 0.103960 
0.541386 0.240107 0.126915 
0.669905 0.258149 0.148393 
0.779451 0.253776 0.156788 
0.017058 0.273702 0.086356 
0.079874 0.318549 0.107843 
0.172148 0.338585 0.114724 
0.276322 0.344477 0.118633 
0.401313 0.347355 0.127673 
0.543943 0.359759 0.144717 
0.677159 0.378885 0.162895 
0.788977 0.384732 0.170873 
0.053897 0.407472 0.117867 
0.107198 0.450867 0.149216 
0.189456 0.468795 0.153075 
0.285570 0.477355 0.152323 
0.403734 0.483486 0.156739 
0.546788 0.496873 0.169139 
0.686370 0.517476 0.182933 
0.801054 0.529773 0.187115 
0.100782 0.532428 0.145703 
0.140876 0.557624 0.183681 
0.210565 0.567591 0.186344 
0.295459 0.577697 0.182410 
0.401738 0.591335 0.184018 
0.538737 0.613354 0.193647 
0.685280 0.642397 0.204491 
0.808144 0.664522 0.205060 
0.151326 0.636950 0.168106 
0.176339 0.640003 0.211215 
0.232865 0.639717 0.215181 
0.306389 0.647069 0.208369 
0.399413 0.664148 0.206005 
0.523233 0.693264 0.212440 
0.670363 0.732577 0.221653 
0.804299 0.768039 0.221217 
0.194948 0.713060 0.179284 
0.207339 0.701849 0.228750 
0.253547 0.694809 0.238718 
0.319119 0.698271 0.231668 
0.402066 0.714269 0.224327 
0.510493 0.744318 0.225189 
0.647776 0.787905 0.231465 
0.787887 0.833666 0.231661 
0.051625 0.057539 0.192279 
0.102162 0.063849 0.168697 
0.210812 0.079798 0.181170 
0.325161 0.092271 0.188438 
0.431969 0.103096 0.189866 
0.544060 0.114467 0.196774 
0.653313 0.114957 0.203937 
0.747802 0.101149 0.197520 
0.014170 0.091385 0.155513 
0.067444 0.099682 0.150738 
0.156993 0.112321 0.153371 
0.277176 0.125211 0.161093 
0.413385 0.140604 0.174799 
0.547849 0.159930 0.194125 
0.667217 0.169795 0.212518 
0.768279 0.157132 0.220768 
0.004586 0.189687 0.169555 
0.065597 0.195215 0.176969 
0.152909 0.202128 0.177802 
0.261458 0.208697 0.178023 
0.394729 0.218495 0.186280 
0.538290 0.236949 0.204022 
0.667113 0.255504 0.223750 
0.775016 0.253912 0.235637 
0.019141 0.324130 0.196467 
0.078573 0.333174 0.211214 
0.161799 0.336472 0.213172 
0.261463 0.337042 0.210871 
0.386523 0.339744 0.213600 
0.533130 0.352434 0.225859 
0.671363 0.371750 0.241729 
0.785050 0.378499 0.251304 
0.053239 0.459732 0.225020 
0.103857 0.468066 0.241916 
0.178400 0.470735 0.243844 
0.268821 0.473260 0.242627 
0.384591 0.477732 0.245070 
0.530227 0.489891 0.254437 
0.678093 0.509183 0.266052 
0.799451 0.520529 0.270782 
0.094105 0.572788 0.248604 
0.134269 0.574186 0.267235 
0.199239 0.574710 0.268587 
0.279581 0.581000 0.267506 
0.383422 0.593831 0.271129 
0.521497 0.614889 0.281079 
0.676398 0.642018 0.291688 
0.809460 0.662449 0.293323 
0.131128 0.657708 0.263803 
0.162416 0.652057 0.286370 
0.219744 0.649724 0.288990 
0.292090 0.656816 0.286757 
0.384647 0.675114 0.288753 
0.509539 0.705197 0.298299 
0.662698 0.743903 0.310009 
0.807041 0.778585 0.312530 
0.158748 0.717243 0.266666 
0.183816 0.708254 0.296175 
0.236713 0.705320 0.304125 
0.305355 0.712204 0.302675 
0.390896 0.731359 0.300984 
0.502154 0.763955 0.306000 
0.643599 0.808219 0.315905 
0.791128 0.853689 0.320157 
0.102542 0.104571 0.352032 
0.147025 0.102158 0.318396 
0.237264 0.103649 0.305935 
0.344745 0.106489 0.298326 
0.451363 0.111906 0.291694 
0.561401 0.119410 0.293220 
0.668413 0.118950 0.299894 
0.760749 0.106977 0.299889 
0.053692 0.125449 0.299779 
0.102899 0.128840 0.293855 
0.180164 0.135353 0.285931 
0.291564 0.142864 0.283649 
0.424944 0.153322 0.289286 
0.557837 0.167455 0.301514 
0.676351 0.174821 0.315493 
0.777405 0.163698 0.324957 
0.030202 0.211932 0.305883 
0.088934 0.211328 0.312046 
0.166682 0.215104 0.309615 
0.267958 0.220385 0.305064 
0.398085 0.228606 0.307319 
0.541334 0.243237 0.318685 
0.671510 0.257975 0.333310 
0.780669 0.256307 0.344009 
0.031023 0.340749 0.324451 
0.090395 0.338991 0.334484 
0.167836 0.339402 0.337695 
0.262693 0.340903 0.336766 
0.384380 0.344531 0.337785 
0.530180 0.355129 0.345661 
0.671820 0.370636 0.357134 
0.789098 0.375692 0.365017 
0.054576 0.473872 0.342287 
0.107535 0.471892 0.352912 
0.179345 0.472648 0.358823 
0.267213 0.476759 0.363434 
0.380684 0.482874 0.369101 
0.525263 0.493603 0.377787 
0.677776 0.509067 0.387123 
0.805532 0.517338 0.391062 
0.086286 0.583936 0.355715 
0.131220 0.579850 0.367345 
0.196438 0.581431 0.374179 
0.276949 0.591002 0.381656 
0.381160 0.606920 0.392499 
0.519492 0.627944 0.406400 
0.678961 0.651814 0.418518 
0.820036 0.668537 0.421854 
0.113269 0.664390 0.361822 
0.152216 0.659048 0.376689 
0.213270 0.661389 0.385454 
0.288960 0.674039 0.393455 
0.385106 0.697311 0.405088 
0.512936 0.729601 0.422125 
0.670210 0.766836 0.439408 
0.821837 0.798707 0.447209 
0.130400 0.719274 0.356805 
0.165815 0.714763 0.376930 
0.225601 0.719346 0.390539 
0.300617 0.733875 0.400349 
0.392796 0.759479 0.409513 
0.510113 0.795897 0.423195 
0.656327 0.840130 0.440174 
0.808877 0.883236 0.451267 
0.135717 0.131950 0.447273 
0.176900 0.128752 0.422429 
0.254582 0.127386 0.413360 
0.357188 0.127086 0.412240 
0.467075 0.128982 0.411929 
0.580386 0.132673 0.414959 
0.689194 0.130805 0.420333 
0.782240 0.119156 0.420895 
0.095040 0.154438 0.426955 
0.140561 0.156360 0.420981 
0.209821 0.161039 0.415880 
0.311869 0.165948 0.416206 
0.439761 0.172102 0.422660 
0.571578 0.180508 0.433023 
0.690865 0.184483 0.443255 
0.792370 0.174240 0.448967 
0.066338 0.228940 0.435682 
0.121969 0.228872 0.440962 
0.193947 0.233361 0.443324 
0.288376 0.238849 0.443861 
0.411782 0.245303 0.447758 
0.551520 0.255062 0.457282 
0.681952 0.264525 0.468244 
0.791694 0.261799 0.475081 
0.056462 0.345936 0.448423 
0.115459 0.344837 0.459066 
0.189881 0.347922 0.468859 
0.280772 0.352222 0.475307 
0.396865 0.356734 0.480474 
0.537893 0.364551 0.488531 
0.679581 0.375001 0.498109 
0.798568 0.377245 0.503654 
0.068580 0.474088 0.458699 
0.124237 0.473646 0.471984 
0.196232 0.478645 0.486585 
0.283394 0.486975 0.500363 
0.393701 0.495189 0.512181 
0.533695 0.504325 0.523220 
0.686192 0.515441 0.532984 
0.817271 0.519970 0.537025 
0.089735 0.584662 0.465487 
0.140153 0.584447 0.480590 
0.208646 0.592342 0.498032 
0.291909 0.607608 0.516772 
0.396688 0.626769 0.536048 
0.532687 0.647258 0.554698 
0.692053 0.667608 0.569755 
0.837238 0.680354 0.576181 
0.106790 0.666705 0.465863 
0.153298 0.667323 0.483026 
0.220441 0.678054 0.503381 
0.302073 0.697980 0.524632 
0.402697 0.725875 0.547230 
0.532021 0.759105 0.571743 
0.690022 0.794194 0.594649 
0.845202 0.823156 0.608967 
0.113935 0.721515 0.454687 
0.158051 0.723875 0.474095 
0.225977 0.738175 0.498794 
0.309466 0.761263 0.523143 
0.409386 0.792655 0.545312 
0.532269 0.831262 0.568519 
0.681652 0.874294 0.592678 
0.837038 0.914889 0.611812 
0.163348 0.154665 0.522841 
0.201971 0.152508 0.507495 
0.269621 0.151454 0.506864 
0.364575 0.150181 0.516050 
0.475668 0.149418 0.527641 
0.594596 0.149332 0.539245 
0.708690 0.145362 0.547341 
0.804296 0.133533 0.546285 
0.132242 0.179363 0.526389 
0.174557 0.181015 0.522287 
0.237808 0.185143 0.523802 
0.330529 0.188752 0.531513 
0.451383 0.191816 0.544640 
0.582369 0.195401 0.559942 
0.704049 0.195945 0.572147 
0.806950 0.186133 0.576015 
0.104460 0.243617 0.538780 
0.156173 0.245859 0.545604 
0.223672 0.251637 0.554609 
0.311815 0.257440 0.563416 
0.427731 0.262436 0.573971 
0.562895 0.268061 0.587489 
0.692923 0.272565 0.600008 
0.802753 0.268167 0.605946 
0.090655 0.348670 0.554100 
0.147572 0.351778 0.567851 
0.219015 0.358355 0.583876 
0.305635 0.364926 0.597639 
0.415367 0.369868 0.609122 
0.550408 0.375296 0.621477 
0.690085 0.381110 0.633456 
0.808780 0.379936 0.639466 
0.095767 0.472092 0.568375 
0.152532 0.476965 0.586435 
0.224085 0.486766 0.607476 
0.309167 0.498296 0.627243 
0.414514 0.507677 0.643680 
0.548177 0.515447 0.658248 
0.697983 0.522918 0.671197 
0.829561 0.523585 0.677623 
0.108535 0.584801 0.577962 
0.163319 0.591404 0.598874 
0.234406 0.605369 0.623925 
0.318458 0.624417 0.648854 
0.420820 0.644919 0.671959 
0.551701 0.664445 0.693049 
0.708149 0.682124 0.711276 
0.854511 0.691462 0.721857 
0.116407 0.670053 0.578553 
0.169439 0.678504 0.600895 
0.242130 0.696783 0.630238 
0.327720 0.721406 0.659290 
0.429348 0.751133 0.686991 
0.556614 0.783920 0.714356 
0.712761 0.817401 0.740564 
0.869151 0.844536 0.760776 
0.113462 0.725637 0.564631 
0.164657 0.735714 0.586695 
0.240358 0.758759 0.621139 
0.330706 0.787618 0.655211 
0.435118 0.821652 0.684989 
0.559980 0.860470 0.713236 
0.710444 0.902385 0.741840 
0.867590 0.941740 0.768255 
0.189904 0.176146 0.589306 
0.225808 0.174364 0.579497 
0.285074 0.173489 0.583627 
0.370753 0.171594 0.598690 
0.478942 0.168693 0.619058 
0.601619 0.165088 0.640118 
0.722046 0.158488 0.655046 
0.821751 0.146226 0.656188 
0.165102 0.201064 0.600250 
0.204476 0.202670 0.599407 
0.262751 0.206320 0.606300 
0.347153 0.208907 0.619952 
0.460252 0.209598 0.639213 
0.588892 0.209169 0.660651 
0.712580 0.206196 0.678048 
0.817521 0.196106 0.684498 
0.140797 0.257122 0.613949 
0.187998 0.261446 0.623755 
0.251059 0.268087 0.637972 
0.333487 0.273834 0.653454 
0.442576 0.277452 0.670568 
0.572901 0.279556 0.689428 
0.701543 0.279429 0.705847 
0.810902 0.272629 0.714082 
0.128164 0.352072 0.635718 
0.180821 0.358772 0.651902 
0.247827 0.367745 0.671408 
0.329506 0.375645 0.690038 
0.433378 0.380702 0.707148 
0.563109 0.384133 0.724674 
0.699987 0.385691 0.740524 
0.816930 0.380462 0.748829 
0.131561 0.471456 0.660923 
0.186260 0.480318 0.680678 
0.254372 0.492732 0.703196 
0.334911 0.505739 0.724909 
0.434414 0.515778 0.744227 
0.562186 0.522820 0.762517 
0.708755 0.527399 0.779366 
0.839027 0.523896 0.788786 
0.140155 0.586307 0.680419 
0.196025 0.597879 0.703112 
0.265764 0.614592 0.728770 
0.346437 0.634557 0.753636 
0.443485 0.655127 0.776945 
0.568358 0.674199 0.799371 
0.721291 0.690421 0.820547 
0.867104 0.696712 0.834605 
0.141512 0.674286 0.687105 
0.198307 0.688977 0.711613 
0.272562 0.711088 0.742104 
0.357030 0.736767 0.770846 
0.455118 0.766187 0.797888 
0.577809 0.798404 0.825162 
0.731192 0.831430 0.853070 
0.887325 0.857507 0.876681 
0.130320 0.730583 0.676455 
0.186217 0.747256 0.700139 
0.266507 0.775715 0.737151 
0.358772 0.806498 0.771873 
0.462405 0.840505 0.801990 
0.585577 0.878831 0.831032 
0.735762 0.920526 0.861804 
0.893501 0.959598 0.892370 
0.215008 0.195064 0.641489 
0.248491 0.192762 0.635232 
0.301491 0.191284 0.641015 
0.378989 0.188377 0.657574 
0.481749 0.183462 0.681383 
0.604012 0.176705 0.707938 
0.728261 0.167319 0.729351 
0.831922 0.154429 0.735980 
0.194046 0.220348 0.651036 
0.231119 0.221402 0.654411 
0.285717 0.224167 0.665317 
0.363922 0.225405 0.682573 
0.469928 0.223704 0.705122 
0.594030 0.219507 0.729893 
0.716875 0.212790 0.751092 
0.822652 0.201539 0.761567 
0.174244 0.270932 0.665449 
0.217247 0.276144 0.678861 
0.276220 0.282904 0.696906 
0.354090 0.288011 0.716835 
0.457824 0.289811 0.738357 
0.583174 0.288199 0.760616 
0.708415 0.283143 0.779468 
0.815481 0.272981 0.789958 
0.165068 0.357234 0.693065 
0.212467 0.365619 0.711091 
0.274222 0.375717 0.732487 
0.351055 0.384229 0.754158 
0.450321 0.389040 0.775375 
0.575826 0.390219 0.796705 
0.709083 0.387039 0.814991 
0.822467 0.376683 0.824732 
0.169664 0.471345 0.728203 
0.219765 0.481631 0.747587 
0.282178 0.494675 0.769333 
0.356959 0.508186 0.791425 
0.451035 0.518854 0.812904 
0.574148 0.525564 0.834382 
0.717345 0.527220 0.853961 
0.844666 0.518559 0.864938 
0.177681 0.586103 0.758026 
0.231111 0.599612 0.779343 
0.295778 0.616240 0.802133 
0.370198 0.635495 0.824746 
0.460826 0.655857 0.847546 
0.580026 0.675122 0.871207 
0.729216 0.690441 0.894411 
0.872868 0.693212 0.909967 
0.176345 0.675396 0.773118 
0.233446 0.693639 0.796789 
0.304627 0.716257 0.823615 
0.383526 0.740727 0.848465 
0.475174 0.768998 0.873091 
0.592129 0.800925 0.899652 
0.741860 0.833976 0.927990 
0.895891 0.858614 0.951842 
0.160966 0.732655 0.770548 
0.218826 0.753968 0.794233 
0.299140 0.784495 0.827931 
0.387948 0.814542 0.857946 
0.486389 0.847218 0.884946 
0.605178 0.884971 0.912906 
0.753260 0.926834 0.943806 
0.909087 0.965347 0.973972 
0.237469 0.209539 0.674623 
0.269018 0.206186 0.671831 
0.318092 0.203732 0.678895 
0.390069 0.199530 0.695553 
0.487454 0.192619 0.719707 
0.605861 0.183148 0.747760 
0.729460 0.171269 0.772675 
0.834854 0.157650 0.784622 
0.219264 0.237466 0.681395 
0.254831 0.237209 0.689232 
0.307320 0.238538 0.703692 
0.381936 0.237893 0.723431 
0.482605 0.233393 0.747254 
0.600742 0.225384 0.772451 
0.719057 0.214882 0.794541 
0.822824 0.201869 0.807678 
0.204405 0.285895 0.697732 
0.244303 0.290659 0.714704 
0.300168 0.296684 0.735822 
0.375114 0.300390 0.758744 
0.475292 0.299504 0.782708 
0.595651 0.293395 0.805951 
0.715064 0.282843 0.824708 
0.817076 0.268579 0.835629 
0.199389 0.364676 0.729620 
0.242062 0.373096 0.749493 
0.298912 0.383319 0.772374 
0.371743 0.391841 0.796120 
0.467849 0.395766 0.819989 
0.589898 0.393742 0.843172 
0.718251 0.384660 0.861630 
0.825831 0.367994 0.870888 
0.205775 0.470723 0.770525 
0.250658 0.480808 0.789725 
0.306894 0.493520 0.810853 
0.376062 0.507181 0.833222 
0.465687 0.518416 0.856387 
0.585103 0.524548 0.879972 
0.724281 0.522385 0.900478 
0.846790 0.507132 0.911106 
0.214733 0.581353 0.807088 
0.263831 0.594946 0.826982 
0.321793 0.610305 0.847162 
0.389117 0.628404 0.867918 
0.473454 0.648580 0.890457 
0.587380 0.668135 0.915040 
0.731991 0.682136 0.938979 
0.871643 0.680262 0.954231 
0.213861 0.669805 0.829146 
0.268688 0.689628 0.851621 
0.333855 0.711107 0.874558 
0.404944 0.733550 0.895764 
0.488975 0.760399 0.918263 
0.599431 0.791876 0.943985 
0.743808 0.824345 0.971589 
0.893530 0.846273 0.993681 
0.198851 0.728119 0.835134 
0.256312 0.752322 0.858658 
0.332776 0.782851 0.887809 
0.414393 0.810977 0.912661 
0.504920 0.841786 0.936244 
0.617136 0.878632 0.962427 
0.760207 0.920016 0.991697 
0.911048 0.956753 1.000000 
