vault/attachments/LUT for me.cube
TITLE "ColorMatch"
LUT_3D_SIZE 5
DOMAIN_MIN 0.000000 0.000000 0.000000
DOMAIN_MAX 0.903226 0.903226 0.903226
0.003812 0.000000 0.006740 
0.132568 0.038959 0.025570 
0.344138 0.095890 0.092254 
0.558007 0.127078 0.129522 
0.747599 0.105207 0.128937 
0.000000 0.121507 0.046249 
0.128089 0.164407 0.059507 
0.334436 0.189846 0.089178 
0.575599 0.222135 0.130159 
0.777797 0.225592 0.153385 
0.033954 0.340825 0.102476 
0.156969 0.403694 0.134080 
0.338389 0.415128 0.137820 
0.582168 0.433349 0.160739 
0.795135 0.456947 0.178668 
0.113465 0.560896 0.151952 
0.197922 0.585842 0.194768 
0.345974 0.604089 0.188556 
0.572353 0.644377 0.201935 
0.808351 0.693882 0.209438 
0.194948 0.713060 0.179284 
0.239900 0.695731 0.238562 
0.358112 0.704634 0.227242 
0.542542 0.754154 0.226598 
0.787887 0.833666 0.231661 
0.092014 0.095504 0.320428 
0.205448 0.096889 0.278377 
0.393536 0.105083 0.266464 
0.584241 0.118514 0.268127 
0.756330 0.104753 0.272088 
0.025486 0.179431 0.266924 
0.140554 0.184130 0.269102 
0.331813 0.196555 0.264584 
0.577146 0.223182 0.286020 
0.777495 0.229147 0.309808 
0.037980 0.407108 0.302784 
0.149737 0.406721 0.317102 
0.317697 0.409206 0.318402 
0.565444 0.424995 0.330587 
0.794926 0.444540 0.344854 
0.095625 0.605553 0.331743 
0.183419 0.600604 0.348483 
0.325915 0.618426 0.358322 
0.555193 0.658998 0.380793 
0.818107 0.701293 0.393130 
0.136528 0.718842 0.333878 
0.211524 0.713924 0.364551 
0.343219 0.738197 0.375958 
0.540374 0.797656 0.394173 
0.803180 0.875322 0.414697 
0.149783 0.143491 0.486235 
0.240942 0.139810 0.461889 
0.415862 0.138589 0.469088 
0.617169 0.140947 0.480464 
0.793576 0.126320 0.484225 
0.091755 0.214680 0.487610 
0.192728 0.219891 0.494012 
0.361415 0.229757 0.501966 
0.595757 0.242163 0.520962 
0.797819 0.241160 0.534831 
0.074740 0.410356 0.509864 
0.186144 0.416039 0.536289 
0.345104 0.427930 0.559889 
0.578418 0.439145 0.578543 
0.812449 0.446695 0.591128 
0.101043 0.608196 0.522687 
0.204289 0.620062 0.558467 
0.355468 0.654119 0.599877 
0.580714 0.695349 0.638735 
0.850537 0.726982 0.662692 
0.111503 0.723326 0.508389 
0.211889 0.743063 0.551392 
0.368047 0.790804 0.603362 
0.581305 0.857457 0.649694 
0.852491 0.929221 0.692681 
0.196378 0.181198 0.603969 
0.272346 0.178704 0.597454 
0.423423 0.174722 0.625985 
0.633940 0.167050 0.665287 
0.825020 0.148760 0.679230 
0.154685 0.243313 0.624574 
0.242799 0.251806 0.642842 
0.391886 0.259943 0.671630 
0.611500 0.261480 0.706825 
0.813315 0.251656 0.728410 
0.137828 0.410720 0.666293 
0.239264 0.427217 0.700601 
0.383714 0.444145 0.736318 
0.599999 0.452007 0.768773 
0.828067 0.446933 0.790313 
0.150431 0.611685 0.706170 
0.257828 0.638175 0.748887 
0.401165 0.675937 0.792574 
0.610084 0.715780 0.834476 
0.875632 0.740886 0.868517 
0.136918 0.731539 0.702340 
0.252835 0.771315 0.753506 
0.415762 0.825961 0.811587 
0.626059 0.891751 0.862399 
0.898551 0.962279 0.916745 
0.237469 0.209539 0.674623 
0.303887 0.204434 0.676179 
0.435668 0.196415 0.706873 
0.637202 0.180405 0.754669 
0.834854 0.157650 0.784622 
0.207415 0.271202 0.692180 
0.286125 0.278423 0.722008 
0.423696 0.281818 0.761372 
0.627451 0.271190 0.802347 
0.817305 0.249245 0.827953 
0.201461 0.415289 0.749721 
0.286336 0.433257 0.785838 
0.415824 0.451625 0.826519 
0.620634 0.455148 0.867129 
0.835270 0.432483 0.890543 
0.215790 0.606255 0.814161 
0.310082 0.633513 0.850055 
0.432250 0.667715 0.886642 
0.623309 0.707562 0.929524 
0.877561 0.724947 0.964914 
0.198851 0.728119 0.835134 
0.313035 0.775555 0.880913 
0.457871 0.825737 0.924322 
0.650096 0.888750 0.969551 
0.911048 0.956753 1.000000 
