vault/attachments/LUT for me.cube
TITLE "ColorMatch"
LUT_3D_SIZE 32
DOMAIN_MIN 0.0 0.0 0.0
DOMAIN_MAX 1.0 1.0 1.0
0.003812 0.000000 0.006740 
0.010797 0.000000 0.000000 
0.021147 0.000000 0.000000 
0.035696 0.002591 0.000000 
0.054589 0.010061 0.000000 
0.077445 0.019092 0.005586 
0.103669 0.028906 0.014929 
0.132568 0.038959 0.025570 
0.163264 0.048909 0.036801 
0.194721 0.058491 0.048020 
0.226001 0.067486 0.058734 
0.256533 0.075742 0.068600 
0.286201 0.083197 0.077451 
0.315257 0.089880 0.085291 
0.344138 0.095890 0.092254 
0.373291 0.101369 0.098543 
0.403037 0.106468 0.104372 
0.433488 0.111308 0.109914 
0.464534 0.115937 0.115263 
0.495886 0.120280 0.120406 
0.527165 0.124117 0.125227 
0.558007 0.127078 0.129522 
0.588138 0.128715 0.133035 
0.617392 0.128623 0.135511 
0.645680 0.126586 0.136756 
0.672935 0.122697 0.136667 
0.699071 0.117378 0.135253 
0.723988 0.111295 0.132621 
0.747599 0.105207 0.128937 
0.769863 0.099820 0.124396 
0.790802 0.095692 0.119193 
0.810498 0.093208 0.113518 
0.000000 0.004682 0.009018 
0.007230 0.006000 0.001794 
0.017957 0.009138 0.000000 
0.032558 0.014436 0.000000 
0.051059 0.021556 0.000905 
0.073154 0.029831 0.006904 
0.098475 0.038664 0.014778 
0.126583 0.047674 0.023849 
0.156822 0.056608 0.033567 
0.188328 0.065257 0.043454 
0.220250 0.073445 0.053111 
0.251994 0.081060 0.062257 
0.283329 0.088069 0.070745 
0.314333 0.094513 0.078561 
0.345260 0.100487 0.085785 
0.376388 0.106114 0.092551 
0.407907 0.111514 0.099001 
0.439843 0.116769 0.105243 
0.472050 0.121877 0.111320 
0.504252 0.126715 0.117190 
0.536120 0.131010 0.122722 
0.567356 0.134354 0.127712 
0.597749 0.136273 0.131913 
0.627179 0.136354 0.135085 
0.655581 0.134394 0.137041 
0.682893 0.130510 0.137683 
0.709028 0.125155 0.137016 
0.733884 0.119031 0.135127 
0.757377 0.112930 0.132159 
0.779479 0.107589 0.128268 
0.800235 0.103599 0.123610 
0.819756 0.101379 0.118328 
0.000000 0.016966 0.012116 
0.004518 0.019324 0.005978 
0.015724 0.023091 0.002597 
0.030435 0.028494 0.002432 
0.048625 0.035224 0.005178 
0.070095 0.042780 0.010196 
0.094644 0.050761 0.016848 
0.121983 0.058899 0.024612 
0.151600 0.066984 0.033045 
0.182778 0.074825 0.041755 
0.214789 0.082273 0.050418 
0.247089 0.089251 0.058808 
0.279402 0.095759 0.066805 
0.311692 0.101856 0.074389 
0.344067 0.107646 0.081608 
0.376663 0.113245 0.088552 
0.409553 0.118759 0.095313 
0.442683 0.124246 0.101956 
0.475872 0.129680 0.108489 
0.508843 0.134911 0.114851 
0.541292 0.139640 0.120902 
0.572964 0.143437 0.126440 
0.603684 0.145809 0.131226 
0.633365 0.146318 0.135026 
0.661962 0.144739 0.137654 
0.689429 0.141164 0.139008 
0.715688 0.136029 0.139080 
0.740642 0.130033 0.137941 
0.764208 0.123985 0.135710 
0.786360 0.118655 0.132518 
0.807145 0.114680 0.128485 
0.826681 0.112528 0.123717 
0.000000 0.032145 0.016760 
0.002914 0.035588 0.011884 
0.014595 0.039894 0.009176 
0.029464 0.045267 0.009055 
0.047514 0.051536 0.011320 
0.068645 0.058420 0.015514 
0.092732 0.065680 0.021163 
0.119516 0.073105 0.027843 
0.148529 0.080480 0.035172 
0.179163 0.087606 0.042817 
0.210832 0.094351 0.050518 
0.243102 0.100671 0.058102 
0.275730 0.106602 0.065483 
0.308640 0.112232 0.072649 
0.341847 0.117680 0.079635 
0.375381 0.123071 0.086504 
0.409213 0.128507 0.093315 
0.443219 0.134041 0.100102 
0.477174 0.139640 0.106853 
0.510790 0.145146 0.113492 
0.543768 0.150256 0.119877 
0.575869 0.154535 0.125809 
0.606939 0.157472 0.131055 
0.636910 0.158601 0.135380 
0.665756 0.157647 0.138597 
0.693451 0.154638 0.140591 
0.719934 0.149953 0.141337 
0.745118 0.144254 0.140888 
0.768924 0.138347 0.139342 
0.791317 0.133032 0.136813 
0.812331 0.128996 0.133398 
0.832074 0.126767 0.129175 
0.000000 0.050567 0.023019 
0.002298 0.054980 0.019382 
0.014396 0.059663 0.017299 
0.029505 0.064904 0.017228 
0.047668 0.070733 0.019115 
0.068828 0.077073 0.022670 
0.092825 0.083778 0.027530 
0.119325 0.090638 0.033321 
0.147835 0.097403 0.039693 
0.177826 0.103866 0.046359 
0.208859 0.109913 0.053117 
0.240647 0.115536 0.059850 
0.273041 0.120809 0.066513 
0.305988 0.125855 0.073112 
0.339467 0.130815 0.079683 
0.373441 0.135830 0.086273 
0.407806 0.141010 0.092922 
0.442373 0.146415 0.099645 
0.476874 0.152015 0.106413 
0.510994 0.157662 0.113143 
0.544427 0.163065 0.119692 
0.576929 0.167793 0.125867 
0.608351 0.171333 0.131437 
0.638631 0.173190 0.136172 
0.667760 0.173026 0.139874 
0.695730 0.170786 0.142413 
0.722502 0.166758 0.143743 
0.748006 0.161532 0.143893 
0.772166 0.155888 0.142946 
0.794936 0.150641 0.140999 
0.816332 0.146527 0.138138 
0.836435 0.144142 0.134425 
0.000000 0.071963 0.030413 
0.002419 0.077213 0.027938 
0.014917 0.082211 0.026475 
0.030419 0.087387 0.026549 
0.048983 0.092960 0.028241 
0.070504 0.098973 0.031375 
0.094696 0.105305 0.035646 
0.121098 0.111710 0.040701 
0.149174 0.117916 0.046223 
0.178467 0.123722 0.051971 
0.208684 0.129046 0.057802 
0.239698 0.133924 0.063658 
0.271480 0.138468 0.069534 
0.304038 0.142834 0.075463 
0.337362 0.147189 0.081486 
0.371381 0.151692 0.087649 
0.405944 0.156468 0.093979 
0.440810 0.161589 0.100477 
0.475668 0.167040 0.107104 
0.510169 0.172689 0.113773 
0.543986 0.178268 0.120342 
0.576858 0.183365 0.126621 
0.608628 0.187474 0.132387 
0.639229 0.190080 0.137410 
0.668658 0.190788 0.141486 
0.696927 0.189450 0.144465 
0.724020 0.186241 0.146279 
0.749885 0.181657 0.146931 
0.774454 0.176420 0.146484 
0.797674 0.171338 0.145023 
0.819538 0.167187 0.142627 
0.840099 0.164623 0.139349 
0.000000 0.095766 0.038300 
0.003170 0.101874 0.037003 
0.016130 0.107340 0.036277 
0.032199 0.112715 0.036695 
0.051377 0.118327 0.038418 
0.073432 0.124254 0.041329 
0.097914 0.130355 0.045154 
0.124242 0.136362 0.049573 
0.151868 0.142011 0.054309 
0.180419 0.147137 0.059182 
0.209742 0.151708 0.064108 
0.239849 0.155803 0.069083 
0.270828 0.159571 0.074144 
0.302763 0.163195 0.079346 
0.335673 0.166866 0.084746 
0.369488 0.170762 0.090388 
0.404026 0.175025 0.096294 
0.439011 0.179743 0.102456 
0.474092 0.184918 0.108829 
0.508885 0.190442 0.115321 
0.543034 0.196071 0.121792 
0.576254 0.201424 0.128059 
0.608365 0.206013 0.133904 
0.639290 0.209315 0.139100 
0.669028 0.210892 0.143436 
0.697598 0.210508 0.146749 
0.725010 0.208223 0.148945 
0.751235 0.204418 0.150002 
0.776216 0.199729 0.149959 
0.799898 0.194934 0.148886 
0.822254 0.190823 0.146857 
0.843306 0.188107 0.143924 
0.000000 0.121507 0.046249 
0.004673 0.128706 0.046274 
0.018180 0.134964 0.046487 
0.034909 0.140885 0.047466 
0.054740 0.146821 0.049405 
0.077282 0.152840 0.052221 
0.101946 0.158786 0.055677 
0.128089 0.164407 0.059507 
0.155196 0.169486 0.063498 
0.182989 0.173922 0.067533 
0.211430 0.177734 0.071591 
0.240637 0.181042 0.075711 
0.270789 0.184026 0.079966 
0.302035 0.186890 0.084432 
0.334436 0.189846 0.089178 
0.367930 0.193085 0.094253 
0.402332 0.196769 0.099676 
0.437338 0.201000 0.105435 
0.472566 0.205802 0.111478 
0.507600 0.211090 0.117712 
0.542049 0.216651 0.123999 
0.575599 0.222135 0.130159 
0.608045 0.227079 0.135982 
0.639292 0.230971 0.141244 
0.669330 0.233343 0.145733 
0.698189 0.233887 0.149274 
0.725896 0.232559 0.151751 
0.752444 0.229616 0.153117 
0.777797 0.225592 0.153385 
0.801900 0.221202 0.152608 
0.824716 0.217230 0.150853 
0.846240 0.214418 0.148172 
0.000000 0.148977 0.054147 
0.007160 0.157600 0.055682 
0.021222 0.164984 0.057019 
0.038552 0.171730 0.058708 
0.058881 0.178170 0.060957 
0.081689 0.184365 0.063724 
0.106312 0.190181 0.066837 
0.132112 0.195425 0.070101 
0.158641 0.199955 0.073384 
0.185708 0.203735 0.076635 
0.213351 0.206835 0.079882 
0.241759 0.209406 0.083201 
0.271168 0.211648 0.086690 
0.301774 0.213783 0.090444 
0.333675 0.216034 0.094544 
0.366833 0.218612 0.099042 
0.401065 0.221690 0.103960 
0.436057 0.225389 0.109281 
0.471401 0.229753 0.114952 
0.506652 0.234720 0.120876 
0.541386 0.240107 0.126915 
0.575255 0.245599 0.132896 
0.608027 0.250764 0.138614 
0.639584 0.255107 0.143850 
0.669905 0.258149 0.148393 
0.699024 0.259534 0.152060 
0.726982 0.259125 0.154719 
0.753797 0.257066 0.156298 
0.779451 0.253776 0.156788 
0.803903 0.249891 0.156222 
0.827107 0.246155 0.154655 
0.849039 0.243323 0.152139 
0.000000 0.178109 0.062061 
0.010794 0.188411 0.065240 
0.025301 0.197121 0.067792 
0.043026 0.204811 0.070238 
0.063581 0.211805 0.072808 
0.086371 0.218188 0.075523 
0.110723 0.223890 0.078295 
0.136054 0.228799 0.081023 
0.161988 0.232853 0.083651 
0.188396 0.236075 0.086189 
0.215365 0.238570 0.088702 
0.243113 0.240510 0.091295 
0.271904 0.242106 0.094081 
0.301967 0.243591 0.097173 
0.333430 0.245198 0.100658 
0.366282 0.247150 0.104595 
0.400354 0.249637 0.109009 
0.435329 0.252796 0.113883 
0.470783 0.256690 0.119161 
0.506244 0.261282 0.124744 
0.541256 0.266416 0.130495 
0.575438 0.271811 0.136243 
0.608525 0.277067 0.141790 
0.640377 0.281715 0.146922 
0.670958 0.285279 0.151431 
0.700302 0.287374 0.155129 
0.728461 0.287794 0.157874 
0.755475 0.286581 0.159575 
0.781348 0.284046 0.160201 
0.806054 0.280727 0.159765 
0.829550 0.277311 0.158308 
0.851799 0.274538 0.155879 
0.004182 0.208790 0.070073 
0.015597 0.220833 0.074925 
0.030336 0.230867 0.078681 
0.048185 0.239457 0.081847 
0.068677 0.246954 0.084701 
0.091198 0.253502 0.087345 
0.115112 0.259114 0.089789 
0.139904 0.263767 0.092024 
0.165261 0.267468 0.094066 
0.191094 0.270279 0.095974 
0.217504 0.272327 0.097845 
0.244718 0.273791 0.099799 
0.273008 0.274886 0.101962 
0.302621 0.275847 0.104455 
0.333712 0.276915 0.107373 
0.366296 0.278324 0.110783 
0.400225 0.280276 0.114712 
0.435189 0.282928 0.119145 
0.470755 0.286360 0.124025 
0.506426 0.290557 0.129253 
0.541716 0.295392 0.134691 
0.576209 0.300613 0.140170 
0.609606 0.305855 0.145496 
0.641742 0.310676 0.150460 
0.672565 0.314615 0.154859 
0.702101 0.317275 0.158504 
0.730415 0.318401 0.161247 
0.757562 0.317957 0.162983 
0.783571 0.316150 0.163661 
0.808434 0.313423 0.163277 
0.832119 0.310387 0.161860 
0.854584 0.307744 0.159448 
0.010041 0.240774 0.078191 
0.021472 0.254400 0.084649 
0.036197 0.265577 0.089526 
0.053909 0.274904 0.093339 
0.074104 0.282789 0.096428 
0.096181 0.289457 0.098989 
0.119562 0.295011 0.101131 
0.143791 0.299503 0.102929 
0.168600 0.302989 0.104463 
0.193922 0.305557 0.105833 
0.219858 0.307341 0.107156 
0.246624 0.308514 0.108564 
0.274491 0.309286 0.110189 
0.303715 0.309888 0.112156 
0.334473 0.310567 0.114566 
0.366809 0.311559 0.117493 
0.400599 0.313080 0.120967 
0.435549 0.315301 0.124977 
0.471223 0.318321 0.129468 
0.507106 0.322148 0.134338 
0.542679 0.326678 0.139452 
0.577488 0.331688 0.144639 
0.611202 0.336846 0.149708 
0.643622 0.341741 0.154456 
0.674679 0.345931 0.158682 
0.704390 0.349019 0.162203 
0.732825 0.350723 0.164864 
0.760055 0.350946 0.166554 
0.786130 0.349814 0.167207 
0.811065 0.347673 0.166803 
0.834840 0.345054 0.165358 
0.857420 0.342601 0.162901 
0.017058 0.273702 0.086356 
0.028279 0.288579 0.094295 
0.042762 0.300599 0.100180 
0.060135 0.310428 0.104558 
0.079874 0.318549 0.107843 
0.101407 0.325273 0.110322 
0.124206 0.330783 0.112196 
0.147866 0.335191 0.113619 
0.172148 0.338585 0.114724 
0.196993 0.341066 0.115642 
0.222492 0.342762 0.116509 
0.248847 0.343834 0.117461 
0.276322 0.344477 0.118633 
0.305175 0.344913 0.120150 
0.335604 0.345381 0.122119 
0.367681 0.346120 0.124614 
0.401313 0.347355 0.127673 
0.436228 0.349266 0.131289 
0.471994 0.351970 0.135407 
0.508082 0.355494 0.139929 
0.543943 0.359759 0.144717 
0.579084 0.364568 0.149600 
0.613133 0.369620 0.154390 
0.645856 0.374530 0.158887 
0.677159 0.378885 0.162895 
0.707050 0.382294 0.166232 
0.735596 0.384464 0.168744 
0.762882 0.385257 0.170316 
0.788977 0.384732 0.170873 
0.813918 0.383153 0.170383 
0.837704 0.380968 0.168849 
0.860310 0.378758 0.166291 
0.025076 0.307176 0.094480 
0.035887 0.322871 0.103752 
0.049956 0.335375 0.110531 
0.066849 0.345434 0.115404 
0.086036 0.353615 0.118857 
0.106968 0.360305 0.121266 
0.129158 0.365751 0.122913 
0.152240 0.370111 0.124018 
0.175996 0.373495 0.124763 
0.200363 0.376006 0.125307 
0.225423 0.377760 0.125797 
0.251361 0.378898 0.126374 
0.278430 0.379596 0.127173 
0.306891 0.380058 0.128317 
0.336958 0.380509 0.129910 
0.368734 0.381185 0.132032 
0.402161 0.382307 0.134723 
0.436995 0.384065 0.137980 
0.472818 0.386589 0.141753 
0.509094 0.389923 0.145943 
0.545245 0.394008 0.150413 
0.580737 0.398672 0.154993 
0.615152 0.403641 0.159494 
0.648216 0.408560 0.163719 
0.679803 0.413039 0.167474 
0.709903 0.416704 0.170583 
0.738578 0.419260 0.172893 
0.765921 0.420544 0.174288 
0.792018 0.420565 0.174688 
0.816928 0.419520 0.174053 
0.840670 0.417780 0.172374 
0.863234 0.415854 0.169667 
0.033954 0.340825 0.102476 
0.044202 0.356868 0.112940 
0.057735 0.369479 0.120512 
0.074061 0.379487 0.125823 
0.092633 0.387533 0.129429 
0.112926 0.394070 0.131784 
0.134485 0.399394 0.133241 
0.156969 0.403694 0.134080 
0.180174 0.407098 0.134522 
0.204037 0.409704 0.134753 
0.228625 0.411613 0.134932 
0.254107 0.412945 0.135203 
0.280726 0.413850 0.135698 
0.308743 0.414508 0.136536 
0.338389 0.415128 0.137820 
0.369794 0.415928 0.139626 
0.402942 0.417125 0.141999 
0.437624 0.418910 0.144939 
0.473448 0.421417 0.148399 
0.509875 0.424705 0.152283 
0.546307 0.428732 0.156453 
0.582168 0.433349 0.160739 
0.616987 0.438305 0.164953 
0.650445 0.443273 0.168897 
0.682374 0.447885 0.172381 
0.712738 0.451787 0.175232 
0.741589 0.454691 0.177302 
0.769021 0.456419 0.178474 
0.795135 0.456947 0.178668 
0.820006 0.456415 0.177838 
0.843677 0.455130 0.175970 
0.866157 0.453532 0.173071 
0.043585 0.374339 0.110284 
0.053168 0.390265 0.121811 
0.066082 0.402614 0.130089 
0.081776 0.412295 0.135794 
0.099689 0.420007 0.139547 
0.119308 0.426250 0.141866 
0.140204 0.431360 0.143168 
0.162057 0.435548 0.143781 
0.184673 0.438951 0.143964 
0.207986 0.441664 0.143929 
0.232049 0.443772 0.143846 
0.257020 0.445372 0.143862 
0.283127 0.446589 0.144108 
0.310631 0.447576 0.144698 
0.339776 0.448516 0.145728 
0.370724 0.449610 0.147273 
0.403498 0.451060 0.149378 
0.437935 0.453049 0.152045 
0.473676 0.455714 0.155229 
0.510198 0.459119 0.158838 
0.546883 0.463237 0.162733 
0.583118 0.467935 0.166745 
0.618380 0.472984 0.170683 
0.652291 0.478080 0.174351 
0.684635 0.482879 0.177559 
0.715339 0.487047 0.180139 
0.744437 0.490301 0.181944 
0.772020 0.492463 0.182863 
0.798192 0.493485 0.182815 
0.823048 0.493465 0.181754 
0.846651 0.492653 0.179659 
0.869030 0.491428 0.176535 
0.053897 0.407472 0.117867 
0.062744 0.422846 0.130343 
0.074978 0.434593 0.139253 
0.089988 0.443685 0.145319 
0.107198 0.450867 0.149216 
0.126104 0.456671 0.151520 
0.146298 0.461456 0.152696 
0.167477 0.465450 0.153117 
0.189456 0.468795 0.153075 
0.212165 0.471582 0.152805 
0.235647 0.473883 0.152491 
0.260043 0.475774 0.152288 
0.285570 0.477355 0.152323 
0.312487 0.478751 0.152705 
0.341047 0.480119 0.153526 
0.371441 0.481636 0.154857 
0.403734 0.483486 0.156739 
0.437815 0.485838 0.159175 
0.473370 0.488824 0.162122 
0.509901 0.492509 0.165488 
0.546788 0.496873 0.169139 
0.583385 0.501796 0.172902 
0.619114 0.507068 0.176585 
0.653534 0.512402 0.179992 
0.686370 0.517476 0.182933 
0.717505 0.521972 0.185241 
0.746940 0.525620 0.186775 
0.774755 0.528241 0.187425 
0.801054 0.529773 0.187115 
0.825946 0.530285 0.185798 
0.849511 0.529979 0.183453 
0.871799 0.529179 0.180082 
0.064836 0.440023 0.125209 
0.072893 0.454452 0.138530 
0.084394 0.465295 0.148008 
0.098671 0.473570 0.154408 
0.115132 0.480044 0.158451 
0.133281 0.485268 0.160760 
0.152729 0.489613 0.161839 
0.173188 0.493318 0.162096 
0.194481 0.496527 0.161855 
0.216533 0.499325 0.161370 
0.239377 0.501774 0.160845 
0.263139 0.503935 0.160439 
0.288023 0.505881 0.160283 
0.314282 0.507715 0.160482 
0.342176 0.509566 0.161124 
0.371920 0.511587 0.162273 
0.403622 0.513939 0.163967 
0.437227 0.516776 0.166207 
0.472474 0.520217 0.168951 
0.508906 0.524324 0.172110 
0.545916 0.529079 0.175548 
0.582835 0.534371 0.179093 
0.619033 0.540000 0.182550 
0.654004 0.545697 0.185721 
0.687405 0.551154 0.188415 
0.719061 0.556069 0.190466 
0.748934 0.560183 0.191735 
0.777077 0.563318 0.192117 
0.803592 0.565404 0.191539 
0.828590 0.566487 0.189957 
0.852171 0.566735 0.187351 
0.874402 0.566420 0.183721 
0.076349 0.471814 0.132303 
0.083566 0.484960 0.146371 
0.094279 0.494648 0.156360 
0.107773 0.501916 0.163072 
0.123438 0.507535 0.167268 
0.140787 0.512058 0.169603 
0.159445 0.515858 0.170614 
0.179141 0.519178 0.170734 
0.199701 0.522161 0.170314 
0.221050 0.524892 0.169630 
0.243210 0.527422 0.168900 
0.266289 0.529797 0.168297 
0.290479 0.532072 0.167954 
0.316021 0.534328 0.167979 
0.343179 0.536668 0.168454 
0.372189 0.539222 0.169438 
0.403197 0.542130 0.170965 
0.436203 0.545524 0.173035 
0.471011 0.549513 0.175605 
0.507217 0.554149 0.178585 
0.544242 0.559413 0.181840 
0.581410 0.565197 0.185198 
0.618050 0.571310 0.188461 
0.653589 0.577492 0.191427 
0.687612 0.583447 0.193904 
0.719872 0.588884 0.195723 
0.750280 0.593552 0.196749 
0.778856 0.597277 0.196879 
0.805685 0.599980 0.196043 
0.830879 0.601692 0.194202 
0.854546 0.602550 0.191337 
0.876775 0.602789 0.187450 
0.088365 0.502675 0.139140 
0.094688 0.514264 0.153863 
0.104561 0.522604 0.164309 
0.117223 0.528722 0.171318 
0.132048 0.533376 0.175678 
0.148556 0.537104 0.178065 
0.166387 0.540274 0.179038 
0.185283 0.543125 0.179050 
0.205076 0.545800 0.178471 
0.225688 0.548380 0.177598 
0.247128 0.550911 0.176667 
0.269491 0.553426 0.175862 
0.292949 0.555967 0.175327 
0.317733 0.558593 0.175171 
0.344104 0.561388 0.175475 
0.372310 0.564460 0.176296 
0.402534 0.567926 0.177664 
0.434829 0.571904 0.179575 
0.469065 0.576484 0.181986 
0.504904 0.581712 0.184807 
0.541813 0.587564 0.187904 
0.579126 0.593932 0.191103 
0.616147 0.600629 0.194204 
0.652240 0.607403 0.197001 
0.686912 0.613963 0.199297 
0.719843 0.620024 0.200920 
0.750876 0.625340 0.201735 
0.779986 0.629736 0.201641 
0.807232 0.633129 0.200572 
0.832717 0.635536 0.198490 
0.856555 0.637070 0.195383 
0.878849 0.637931 0.191252 
0.100782 0.532428 0.145703 
0.106157 0.542263 0.160988 
0.115141 0.549124 0.171846 
0.126927 0.554004 0.179142 
0.140876 0.557624 0.183681 
0.156512 0.560497 0.186152 
0.173490 0.562977 0.187122 
0.191561 0.565295 0.187058 
0.210565 0.567591 0.186344 
0.230419 0.569944 0.185296 
0.251121 0.572395 0.184165 
0.272750 0.574969 0.183151 
0.295459 0.577697 0.182410 
0.319462 0.580621 0.182055 
0.345013 0.583808 0.182173 
0.372369 0.587346 0.182818 
0.401738 0.591335 0.184018 
0.433225 0.595875 0.185767 
0.466764 0.601046 0.188022 
0.502093 0.606882 0.190693 
0.538737 0.613354 0.193647 
0.576065 0.620358 0.196709 
0.613367 0.627705 0.199676 
0.649961 0.635147 0.202337 
0.685280 0.642397 0.204491 
0.718920 0.649169 0.205960 
0.750648 0.655218 0.206606 
0.780383 0.660366 0.206327 
0.808144 0.664522 0.205060 
0.834018 0.667689 0.202770 
0.858118 0.669963 0.199449 
0.880558 0.671514 0.195101 
0.113465 0.560896 0.151952 
0.117842 0.568858 0.167715 
0.125896 0.574177 0.178946 
0.136776 0.577783 0.186527 
0.149825 0.580345 0.191269 
0.164573 0.582340 0.193861 
0.180684 0.584098 0.194870 
0.197922 0.585842 0.194768 
0.216130 0.587706 0.193950 
0.235221 0.589768 0.192743 
0.255183 0.592066 0.191418 
0.276077 0.594620 0.190189 
0.298034 0.597451 0.189224 
0.321253 0.600590 0.188650 
0.345974 0.604089 0.188556 
0.372455 0.608019 0.189000 
0.400924 0.612465 0.190011 
0.431525 0.617513 0.191582 
0.464260 0.623231 0.193669 
0.498940 0.629648 0.196186 
0.535165 0.636732 0.198999 
0.572353 0.644377 0.201935 
0.609807 0.652399 0.204789 
0.646812 0.660550 0.207345 
0.682734 0.668542 0.209393 
0.717087 0.676087 0.210752 
0.749555 0.682936 0.211274 
0.779986 0.688900 0.210858 
0.808351 0.693882 0.209438 
0.834710 0.697870 0.206984 
0.859164 0.700940 0.203488 
0.881834 0.703238 0.198959 
0.126244 0.587905 0.157829 
0.129588 0.593959 0.173992 
0.136690 0.597739 0.185568 
0.146648 0.600087 0.193441 
0.158791 0.601606 0.198417 
0.172649 0.602732 0.201174 
0.187898 0.603767 0.202271 
0.204309 0.604920 0.202179 
0.221730 0.606322 0.201295 
0.240070 0.608046 0.199957 
0.259305 0.610131 0.198449 
0.279479 0.612594 0.197002 
0.300703 0.615449 0.195800 
0.323153 0.618718 0.194983 
0.347053 0.622441 0.194648 
0.372656 0.626676 0.194861 
0.400202 0.631494 0.195652 
0.429866 0.636970 0.197016 
0.461709 0.643164 0.198913 
0.495616 0.650100 0.201257 
0.531270 0.657746 0.203920 
0.568152 0.665999 0.206729 
0.605601 0.674678 0.209479 
0.642889 0.683537 0.211950 
0.679333 0.692287 0.213925 
0.714366 0.700636 0.215213 
0.747586 0.708322 0.215660 
0.778760 0.715149 0.215157 
0.807801 0.721001 0.213636 
0.834728 0.725853 0.211067 
0.859625 0.729762 0.207445 
0.882610 0.732853 0.202780 
0.138929 0.613298 0.163249 
0.141231 0.617491 0.179748 
0.147377 0.619791 0.191653 
0.156418 0.620941 0.199835 
0.167664 0.621472 0.205085 
0.180649 0.621769 0.208060 
0.195056 0.622108 0.209304 
0.210665 0.622679 0.209278 
0.227324 0.623607 0.208377 
0.244940 0.624966 0.206945 
0.263477 0.626794 0.205277 
0.282962 0.629106 0.203619 
0.303484 0.631915 0.202172 
0.325197 0.635235 0.201091 
0.348304 0.639096 0.200488 
0.373048 0.643546 0.200435 
0.399671 0.648643 0.200969 
0.428373 0.654454 0.202091 
0.459262 0.661032 0.203763 
0.492294 0.668400 0.205907 
0.527234 0.676528 0.208396 
0.563643 0.685319 0.211063 
0.600911 0.694599 0.213706 
0.638325 0.704127 0.216101 
0.675169 0.713613 0.218025 
0.710809 0.722759 0.219277 
0.744755 0.731291 0.219692 
0.776690 0.738996 0.219152 
0.806457 0.745742 0.217584 
0.834021 0.751483 0.214955 
0.859442 0.756257 0.211259 
0.882826 0.760168 0.206510 
0.151326 0.636950 0.168106 
0.152603 0.639394 0.184893 
0.157815 0.640325 0.197122 
0.165961 0.640376 0.205643 
0.176339 0.640003 0.211215 
0.188483 0.639540 0.214471 
0.202084 0.639231 0.215930 
0.216928 0.639251 0.216038 
0.232865 0.639717 0.215181 
0.249799 0.640702 0.213704 
0.267682 0.642245 0.211909 
0.286523 0.644365 0.210059 
0.306389 0.647069 0.208369 
0.327410 0.650369 0.207013 
0.349769 0.654289 0.206116 
0.373690 0.658865 0.205765 
0.399413 0.664148 0.206005 
0.427152 0.670196 0.206845 
0.457052 0.677057 0.208253 
0.489130 0.684754 0.210157 
0.523233 0.693264 0.212440 
0.559008 0.702498 0.214940 
0.595914 0.712292 0.217458 
0.633274 0.722414 0.219772 
0.670363 0.732577 0.221653 
0.706496 0.742478 0.222892 
0.741104 0.751831 0.223311 
0.773785 0.760403 0.222780 
0.804299 0.768039 0.221217 
0.832554 0.774672 0.218581 
0.858566 0.780317 0.214867 
0.882424 0.785056 0.210088 
0.163252 0.658771 0.172276 
0.163557 0.659639 0.189317 
0.167876 0.659349 0.201883 
0.175168 0.658426 0.210783 
0.184718 0.657255 0.216738 
0.196067 0.656120 0.220344 
0.208909 0.655235 0.222096 
0.223039 0.654754 0.222414 
0.238308 0.654789 0.221673 
0.254613 0.655410 0.220214 
0.271896 0.656659 0.218342 
0.290150 0.658557 0.216331 
0.309419 0.661112 0.214414 
0.329808 0.664335 0.212781 
0.351476 0.668243 0.211575 
0.374628 0.672866 0.210899 
0.399490 0.678246 0.210810 
0.426287 0.684435 0.211328 
0.455187 0.691477 0.212430 
0.486262 0.699397 0.214052 
0.519431 0.708176 0.216086 
0.554428 0.717740 0.218382 
0.590793 0.727938 0.220746 
0.627906 0.738551 0.222961 
0.665058 0.749302 0.224795 
0.701534 0.759883 0.226030 
0.736703 0.769999 0.226477 
0.770076 0.779396 0.225991 
0.801330 0.787894 0.224477 
0.830302 0.795400 0.221888 
0.856957 0.801903 0.218209 
0.881356 0.807462 0.213453 
0.174560 0.678722 0.175622 
0.173969 0.678222 0.192904 
0.177454 0.676881 0.205833 
0.183943 0.675129 0.215162 
0.192718 0.673282 0.221567 
0.203323 0.671579 0.225602 
0.215465 0.670201 0.227730 
0.228941 0.669286 0.228346 
0.243602 0.668937 0.227807 
0.259342 0.669222 0.226441 
0.276092 0.670185 0.224556 
0.293825 0.671850 0.222432 
0.312566 0.674228 0.220318 
0.332393 0.677329 0.218419 
0.353439 0.681167 0.216900 
0.375885 0.685767 0.215881 
0.399946 0.691165 0.215435 
0.425840 0.697405 0.215594 
0.453756 0.704530 0.216348 
0.483804 0.712565 0.217644 
0.515968 0.721500 0.219386 
0.550065 0.731273 0.221433 
